X: 102231
T: Jackson's Humours of Panteen
S: "Jackson's Celebrated Irish Tunes"
L: 1/8
M: 6/8
R: jig
Q: 1/4=160
K: C
D/E/^FD G2B |AGE G2E |D/E/^FD G2B |AGE cGE |
D/E/^FD G2B |AGE G2c |B/c/dB c2A |AGE EDC :|
d2e g2e |age g2e |d2e g2e |age edB |
d2e g2e |age g2c |B/c/dB c2A |AGE EDC :|
B/c/dB c2A |BAG c2A |B/c/dB c2A |AGE EDC |
B/c/dB c2A |BAG c2A |GAB c2A |AGE EDC :|
